X:725
T:The Trees They Do Grow High
C:Martin Carthy
R:jig
N:
Z:
M:6/8
K:Edor
B,||"Em"E2E E2F|G2 (F F2) F|E2 G F2 E|"Bm"(B,3 B,2) C|
"D"D3 D2 E|F2 (F F2) F|"A"E2 E C2 B,|(A,3 A,2) A|
"G"B3 B2 A|"D"D2 F A2 B|"Em"E2 G F2 E|"Bm"(B,3 B,) B,C|
"D"D2 E C2 B,|"A"(A,3 A,) G,A,|"Em" B,2 (E E3|E3 E3)|
"G"B2 (B B3|B3 B3)|"D"A2 (A A)GF|
"Em"EFG F2 E|"D\Bm"(D3 D)B,A,|"Em"B,2 (E E3|E3 E2) B,||
